X:7
T:Valse du Bargouin
M:3/4
L:1/4
K:G
BA>G|B2G|ed>B|d2B/d/|gfe|c2A/c/|fed|B2G|\
BA>G|B2G|ed>B|d2B/d/|gfe|cBA|GBd|
g3:|\
|:g3|f3|ege|e3|cec|BeB|A/B/ c/d/ e/f/|edB/d/|\
g3|f3|ege|d3|cec|BdB|A/B/ c/d/ e/f/|g3:|
|:dGB|dGB|d3|GBd|g/f/ e/d/ c/B/|A3|\
c=FA|c=FA|c3|=FAc|f/e/ d/c/ B/A/|1 B2G:|2 G3||
